X: 5029
T: Brian Maguire
R: barndance
M: 4/4
K: Fmajor
C2FEF2DE|F2EDC2A,2|B2BG A/B/c cA|F2A2c2f2|
fefg fefg|[M:2/4]a2g/f/e|[M:4/4]d3ad3a|g3fe2de|fcde fcde|
fedcB2AG|A2DA GBCE|1 F2FEF3D:|2 F2FEF4||
|:A/B/c/A/ FA FAcA|B2BdB2Bd|cBAG ABcA|F2FAF2FA|
GAGF GAB2|ABAG ABc2|BAGF EFGA|F2EDD4|
cdef fgga|abbc'a2gf|gafa f2ed|c2e2f4:|

